Flat Remix Dark/panel/indicator-keyboard-Da.svg

<svg xmlns="http://www.w3.org/2000/svg" width="22" height="22" version="1.1">
 <defs>
  <style id="current-color-scheme" type="text/css">
   .ColorScheme-Text { color:#d3dae3; } .ColorScheme-Highlight { color:#5294e2; }
  </style>
 </defs>
 <rect style="opacity:0" width="22" height="22" x="0" y="0"/>
 <path style="fill:none;stroke:currentColor;stroke-width:1.99999976;stroke-linecap:round;stroke-linejoin:bevel" class="ColorScheme-Text" d="m 5.0070852,15.006412 c 0,0 4.013654,0.350449 4,-3.999998 -0.0142,-4.5253938 -4,-4.0000022 -4,-4.0000022 m -0.0141,7.9935862 0,-7.9999963"/>
 <path style="fill:none;stroke:currentColor;stroke-width:1.99999976;stroke-linecap:round;stroke-linejoin:bevel" class="ColorScheme-Text" d="m 13,12.004811 4,0 m -3.9999,2.999999 0,-5.9999989 M 17,15.00481 17,9.0048111 m -4,0 -1.5e-5,-0.9995519 c 0,-1 0,-1 2.000015,-1.0004491 1.999985,-4.491e-4 1.999977,4.491e-4 1.999985,1.0004491 C 17,10 17,9.0048111 17,9.0048111"/>
</svg>

<svg xmlns="http://www.w3.org/2000/svg" width="12pt" height="12pt" version="1.1" viewBox="0 0 12 12">
 <g>
  <path style="fill:none;stroke-width:2;stroke-linecap:round;stroke-linejoin:bevel;stroke:rgb(82.745098%,85.490196%,89.019608%)" d="M 5.007812 15.007812 C 5.007812 15.007812 9.023438 15.359375 9.007812 11.007812 C 8.992188 6.484375 5.007812 7.007812 5.007812 7.007812 M 4.992188 15 L 4.992188 7" transform="matrix(0.5,0,0,0.5,0.5,0.5)"/>
  <path style="fill:none;stroke-width:2;stroke-linecap:round;stroke-linejoin:bevel;stroke:rgb(82.745098%,85.490196%,89.019608%)" d="M 13 12.007812 L 17 12.007812 M 13 15.007812 L 13 9.007812 M 17 15.007812 L 17 9.007812 M 13 9.007812 L 13 8.007812 C 13 7.007812 13 7.007812 15 7.007812 C 17 7.007812 17 7.007812 17 8.007812 C 17 10 17 9.007812 17 9.007812" transform="matrix(0.5,0,0,0.5,0.5,0.5)"/>
 </g>
</svg>
